X:1
T:Title
L:1/8
Q:1/4=100
M:2/4
K:Ab
V:1 treble nm="Grand Piano"
V:1
 z C FG | A3 G | A3 G | A4- | AA GF | F2 =EF | G4- | G4 | z C =EG | B3 =A | B3 c | B4- | Bc BA | %13
 A2 G2 | A4- | A4 | c4 | d2 c2 | B4- | B4 | B4 | c2 d2 | c4- | c4 | A4 | B2 A2 | G2 F2 | =E2 F2 | %28
 G4- | G4- | G4- | G4 | c4 | d2 c2 | B4- | B4 | B4 | c2 d2 | c4- | c4- | cd cB | AG F=E | F4 | %43
 z C FG | A4 | C2 c2 | B4- | Bc dc | dc B=A | B4- | B4 | B2 GF | =E4 | C2 AG | F3 F | c_c AG | %56
 F=E DE | F4- | F4 |] %59

